X:1
T:Redmond, LM
T:Redmond, LM
T:Anonymous, 1874
T:Public Domain Courtesy of the Cyber Hymnal™
C:Anonymous, 1874
Z:Public Domain
Z:Courtesy of the Cyber Hymnal™
%%score ( 1 2 ) ( 3 4 )
L:1/8
M:4/4
K:E
V:1 treble 
V:2 treble 
V:3 bass 
V:4 bass 
V:1
 [B,E]2 | [B,G]2 [B,G]2 [B,G]2 [B,B]2 | E4 [DF]4 | [EG]6 [FB]2 | [GB]2 [FB]2 [Ec]2 [Dd]2 | %5
 [Ge]4 [Ec]4 | [DB]6 [FB]2 | [GB]2 [FB]2 [GB]2 [Ec]2 | [DA]4 [EG]4 | [DF]6 [B,E]2 | %10
 [EG]2 [DF]2 [EG]2 [FA]2 | [EG]4 [DF]4 | [B,E]6 |] %13
V:2
 x2 | x8 | E4 x4 | x8 | x8 | x8 | x8 | x8 | x8 | x8 | x8 | x8 | x6 |] %13
V:3
 [E,G,]2 | [E,G,]2 [E,G,]2 [E,G,]2 [D,F,]2 | [C,G,]4 [B,,B,]4 | [E,B,]6 [D,B,]2 | %4
 [E,B,]2 [D,B,]2 [C,^A,]2 [B,,B,]2 | [E,B,]4 [F,^A,]4 | [B,,B,]6 [D,B,]2 | %7
 [E,B,]2 [D,B,]2 [E,B,]2 A,2 | [F,A,]4 [E,B,]4 | [B,,B,]6 [E,G,]2 | %10
 [E,B,]2 [B,,B,]2 [E,B,]2 [A,,C]2 | [B,,B,]4 [B,,A,]4 | [E,G,]6 |] %13
V:4
 x2 | x8 | x8 | x8 | x8 | x8 | x8 | x6 A,2 | x8 | x8 | x8 | x8 | x6 |] %13

